dataset/throne/icon.svg

<?xml version="1.0" encoding="UTF-8" standalone="no"?>
<svg
   viewBox="0 0 128 128"
   style="display:inline;enable-background:new"
   version="1.0"
   id="svg11300"
   height="128"
   width="128"
   xml:space="preserve"
   xmlns:xlink="http://www.w3.org/1999/xlink"
   xmlns="http://www.w3.org/2000/svg"
   xmlns:svg="http://www.w3.org/2000/svg"
   xmlns:rdf="http://www.w3.org/1999/02/22-rdf-syntax-ns#"
   xmlns:cc="http://creativecommons.org/ns#"
   xmlns:dc="http://purl.org/dc/elements/1.1/"><title
     id="title4162">Adwaita Icon Template</title><defs
     id="defs3"><linearGradient
       id="linearGradient31"><stop
         style="stop-color:#006d00;stop-opacity:1;"
         offset="0"
         id="stop31" /><stop
         style="stop-color:#000000;stop-opacity:1;"
         offset="1"
         id="stop32" /></linearGradient><linearGradient
       id="linearGradient29"><stop
         style="stop-color:#2c9f00;stop-opacity:1;"
         offset="0"
         id="stop29" /><stop
         style="stop-color:#000000;stop-opacity:1;"
         offset="1"
         id="stop30" /></linearGradient><linearGradient
       id="linearGradient974"><stop
         style="stop-color:#000000;stop-opacity:1;"
         offset="0"
         id="stop962" /><stop
         id="stop964"
         offset="0.04166667"
         style="stop-color:#ffffff;stop-opacity:1;" /><stop
         style="stop-color:#000000;stop-opacity:1;"
         offset="0.08333334"
         id="stop966" /><stop
         id="stop968"
         offset="0.91666669"
         style="stop-color:#000000;stop-opacity:1;" /><stop
         style="stop-color:#ffffff;stop-opacity:1;"
         offset="0.95833331"
         id="stop970" /><stop
         style="stop-color:#000000;stop-opacity:1;"
         offset="1"
         id="stop972" /></linearGradient><linearGradient
       y2="44"
       x2="464"
       y1="44"
       x1="48"
       gradientTransform="matrix(0.25,0,0,0.25,0,53)"
       gradientUnits="userSpaceOnUse"
       id="linearGradient1747"
       xlink:href="#linearGradient974" /><linearGradient
       xlink:href="#linearGradient29"
       id="linearGradient30"
       x1="60.635593"
       y1="96.008179"
       x2="48.298466"
       y2="105.49496"
       gradientUnits="userSpaceOnUse" /><linearGradient
       xlink:href="#linearGradient31"
       id="linearGradient32"
       x1="105.05923"
       y1="94.969391"
       x2="87.248047"
       y2="106.38866"
       gradientUnits="userSpaceOnUse" /></defs><metadata
     id="metadata4"><rdf:RDF><cc:Work
         rdf:about=""><dc:format>image/svg+xml</dc:format><dc:type
           rdf:resource="http://purl.org/dc/dcmitype/StillImage" /><dc:creator><cc:Agent><dc:title>GNOME Design Team</dc:title></cc:Agent></dc:creator><dc:source /><cc:license
           rdf:resource="http://creativecommons.org/licenses/by-sa/4.0/" /><dc:title>Adwaita Icon Template</dc:title><dc:subject><rdf:Bag /></dc:subject><dc:date /><dc:rights><cc:Agent><dc:title /></cc:Agent></dc:rights><dc:publisher><cc:Agent><dc:title /></cc:Agent></dc:publisher><dc:identifier /><dc:relation /><dc:language /><dc:coverage /><dc:description /><dc:contributor><cc:Agent><dc:title /></cc:Agent></dc:contributor></cc:Work><cc:License
         rdf:about="http://creativecommons.org/licenses/by-sa/4.0/"><cc:permits
           rdf:resource="http://creativecommons.org/ns#Reproduction" /><cc:permits
           rdf:resource="http://creativecommons.org/ns#Distribution" /><cc:requires
           rdf:resource="http://creativecommons.org/ns#Notice" /><cc:requires
           rdf:resource="http://creativecommons.org/ns#Attribution" /><cc:permits
           rdf:resource="http://creativecommons.org/ns#DerivativeWorks" /><cc:requires
           rdf:resource="http://creativecommons.org/ns#ShareAlike" /></cc:License></rdf:RDF></metadata><path
     id="path29"
     style="display:inline;fill:#006d00;fill-opacity:1;stroke:none;stroke-width:0.25;stroke-linecap:butt;stroke-linejoin:miter;stroke-miterlimit:4;stroke-dasharray:none;stroke-dashoffset:0;stroke-opacity:1;marker:none;marker-start:none;marker-mid:none;marker-end:none;paint-order:normal;enable-background:new"
     d="m 116,45.705078 -22.455078,28.753906 -6.296875,8.0625 21.546873,33.439456 c 3.66736,-0.35862 6.59209,-3.1732 7.11914,-6.78711 C 115.96992,108.79083 116,108.39898 116,108 Z" /><path
     id="path28"
     style="display:inline;fill:#2c9f00;fill-opacity:1;stroke:none;stroke-width:0.25;stroke-linecap:butt;stroke-linejoin:miter;stroke-miterlimit:4;stroke-dasharray:none;stroke-dashoffset:0;stroke-opacity:1;marker:none;marker-start:none;marker-mid:none;marker-end:none;paint-order:normal;enable-background:new"
     d="M 63.929688,46.332031 45.792969,74.478516 40.671875,82.425781 66.890625,116 H 78.21875 108 c 0.26836,0 0.53349,-0.0135 0.79492,-0.0391 v -3.99996 L 87.248047,82.521484 82.126953,74.574219 Z" /><path
     id="path27"
     style="display:inline;fill:#84c45d;fill-opacity:1;stroke:none;stroke-width:0.25;stroke-linecap:butt;stroke-linejoin:miter;stroke-miterlimit:4;stroke-dasharray:none;stroke-dashoffset:0;stroke-opacity:1;marker:none;marker-start:none;marker-mid:none;marker-end:none;paint-order:normal;enable-background:new"
     d="m 66.890625,116 v -4 L 12,45.708984 V 108 c 0,4.432 3.568,8 8,8 z" /><rect
     ry="8"
     rx="8"
     y="80.852539"
     x="12"
     height="35.147461"
     width="104"
     id="rect1709"
     style="display:inline;fill:url(#linearGradient1747);fill-opacity:1;stroke:none;stroke-width:0.25;stroke-linecap:butt;stroke-linejoin:miter;stroke-miterlimit:4;stroke-dasharray:none;stroke-dashoffset:0;stroke-opacity:1;marker:none;marker-start:none;marker-mid:none;marker-end:none;paint-order:normal;enable-background:new;opacity:0.4" /><path
     id="rect1711"
     style="display:inline;fill:#84c45d;fill-opacity:1;stroke:none;stroke-width:0.25;stroke-linecap:butt;stroke-linejoin:miter;stroke-miterlimit:4;stroke-dasharray:none;stroke-dashoffset:0;stroke-opacity:1;marker:none;marker-start:none;marker-mid:none;marker-end:none;paint-order:normal;enable-background:new"
     d="M 66.890625 112 L 12 41.708984 L 12 104 C 12 108.432 15.568 112 20 112 L 66.890625 112 z " /><path
     id="path13"
     style="display:inline;fill:url(#linearGradient30);fill-opacity:1;stroke:none;stroke-width:0.25;stroke-linecap:butt;stroke-linejoin:miter;stroke-miterlimit:4;stroke-dasharray:none;stroke-dashoffset:0;stroke-opacity:1;marker:none;marker-start:none;marker-mid:none;marker-end:none;paint-order:normal;enable-background:new"
     d="M 63.929688 42.332031 L 45.792969 70.478516 L 40.671875 78.425781 L 66.890625 112 L 78.21875 112 L 108 112 C 108.26836 112 108.53349 111.9865 108.79492 111.96094 L 87.248047 78.521484 L 82.126953 70.574219 L 63.929688 42.332031 z " /><path
     id="path12"
     style="display:inline;fill:url(#linearGradient32);fill-opacity:1;stroke:none;stroke-width:0.25;stroke-linecap:butt;stroke-linejoin:miter;stroke-miterlimit:4;stroke-dasharray:none;stroke-dashoffset:0;stroke-opacity:1;marker:none;marker-start:none;marker-mid:none;marker-end:none;paint-order:normal;enable-background:new"
     d="M 116 41.705078 L 93.544922 70.458984 L 87.248047 78.521484 L 108.79492 111.96094 C 112.46228 111.60232 115.38701 108.78774 115.91406 105.17383 C 115.96992 104.79083 116 104.39898 116 104 L 116 41.705078 z " /></svg>

<svg xmlns="http://www.w3.org/2000/svg" xmlns:xlink="http://www.w3.org/1999/xlink" xml:space="preserve" width="128" height="128" style="display:inline" viewBox="0 0 128 128"><title>Adwaita Icon Template</title><defs><linearGradient id="c"><stop offset="0" style="stop-color:#006d00;stop-opacity:1"/><stop offset="1" style="stop-color:#000;stop-opacity:1"/></linearGradient><linearGradient id="b"><stop offset="0" style="stop-color:#2c9f00;stop-opacity:1"/><stop offset="1" style="stop-color:#000;stop-opacity:1"/></linearGradient><linearGradient id="a"><stop offset="0" style="stop-color:#000;stop-opacity:1"/><stop offset=".042" style="stop-color:#fff;stop-opacity:1"/><stop offset=".083" style="stop-color:#000;stop-opacity:1"/><stop offset=".917" style="stop-color:#000;stop-opacity:1"/><stop offset=".958" style="stop-color:#fff;stop-opacity:1"/><stop offset="1" style="stop-color:#000;stop-opacity:1"/></linearGradient><linearGradient xlink:href="#a" id="d" x1="48" x2="464" y1="44" y2="44" gradientTransform="matrix(.25 0 0 .25 0 53)" gradientUnits="userSpaceOnUse"/><linearGradient xlink:href="#b" id="e" x1="60.636" x2="48.298" y1="96.008" y2="105.495" gradientUnits="userSpaceOnUse"/><linearGradient xlink:href="#c" id="f" x1="105.059" x2="87.248" y1="94.969" y2="106.389" gradientUnits="userSpaceOnUse"/></defs><path d="M116 45.705 93.545 74.46l-6.297 8.062 21.547 33.44A7.98 7.98 0 0 0 116 108Z" style="display:inline;fill:#006d00;fill-opacity:1;stroke:none;stroke-width:.25;stroke-linecap:butt;stroke-linejoin:miter;stroke-miterlimit:4;stroke-dasharray:none;stroke-dashoffset:0;stroke-opacity:1;marker:none;marker-start:none;marker-mid:none;marker-end:none;paint-order:normal"/><path d="M63.93 46.332 45.793 74.479l-5.121 7.947L66.89 116h11.328H108q.402 0 .795-.04v-4L87.248 82.522l-5.121-7.947Z" style="display:inline;fill:#2c9f00;fill-opacity:1;stroke:none;stroke-width:.25;stroke-linecap:butt;stroke-linejoin:miter;stroke-miterlimit:4;stroke-dasharray:none;stroke-dashoffset:0;stroke-opacity:1;marker:none;marker-start:none;marker-mid:none;marker-end:none;paint-order:normal"/><path d="M66.89 116v-4L12 45.709V108c0 4.432 3.568 8 8 8z" style="display:inline;fill:#84c45d;fill-opacity:1;stroke:none;stroke-width:.25;stroke-linecap:butt;stroke-linejoin:miter;stroke-miterlimit:4;stroke-dasharray:none;stroke-dashoffset:0;stroke-opacity:1;marker:none;marker-start:none;marker-mid:none;marker-end:none;paint-order:normal"/><rect width="104" height="35.147" x="12" y="80.853" rx="8" ry="8" style="display:inline;fill:url(#d);fill-opacity:1;stroke:none;stroke-width:.25;stroke-linecap:butt;stroke-linejoin:miter;stroke-miterlimit:4;stroke-dasharray:none;stroke-dashoffset:0;stroke-opacity:1;marker:none;marker-start:none;marker-mid:none;marker-end:none;paint-order:normal;opacity:.4"/><path d="M66.89 112 12 41.709V104c0 4.432 3.568 8 8 8z" style="display:inline;fill:#84c45d;fill-opacity:1;stroke:none;stroke-width:.25;stroke-linecap:butt;stroke-linejoin:miter;stroke-miterlimit:4;stroke-dasharray:none;stroke-dashoffset:0;stroke-opacity:1;marker:none;marker-start:none;marker-mid:none;marker-end:none;paint-order:normal"/><path d="M63.93 42.332 45.793 70.479l-5.121 7.947L66.89 112h11.328H108q.402 0 .795-.04L87.248 78.522l-5.121-7.947z" style="display:inline;fill:url(#e);fill-opacity:1;stroke:none;stroke-width:.25;stroke-linecap:butt;stroke-linejoin:miter;stroke-miterlimit:4;stroke-dasharray:none;stroke-dashoffset:0;stroke-opacity:1;marker:none;marker-start:none;marker-mid:none;marker-end:none;paint-order:normal"/><path d="M116 41.705 93.545 70.46l-6.297 8.062 21.547 33.44A7.98 7.98 0 0 0 116 104z" style="display:inline;fill:url(#f);fill-opacity:1;stroke:none;stroke-width:.25;stroke-linecap:butt;stroke-linejoin:miter;stroke-miterlimit:4;stroke-dasharray:none;stroke-dashoffset:0;stroke-opacity:1;marker:none;marker-start:none;marker-mid:none;marker-end:none;paint-order:normal"/></svg>
